src/Eleven/16/symbolic/categories/event-birthday-symbolic.svg

<?xml version="1.0" encoding="UTF-8" standalone="no"?>
<svg
   height="16.04"
   width="16"
   version="1.1"
   id="svg1"
   sodipodi:docname="event-birthday-symbolic.svg"
   inkscape:version="1.4.2 (ebf0e940d0, 2025-05-08)"
   xmlns:inkscape="http://www.inkscape.org/namespaces/inkscape"
   xmlns:sodipodi="http://sodipodi.sourceforge.net/DTD/sodipodi-0.dtd"
   xmlns="http://www.w3.org/2000/svg"
   xmlns:svg="http://www.w3.org/2000/svg">
  <defs
     id="defs1">
     <style
        id="current-color-scheme"
        type="text/css">
        .ColorScheme-Text { color:#363636; }
        .ColorScheme-NeutralText { color:#f67400; }
        .ColorScheme-PositiveText { color:#37c837; }
        .ColorScheme-NegativeText { color:#f44336; }
        .ColorScheme-Highlight { color:#3daee9; }
     </style>
  </defs>
  <sodipodi:namedview
     id="namedview1"
     pagecolor="#ffffff"
     bordercolor="#000000"
     borderopacity="0.25"
     inkscape:showpageshadow="2"
     inkscape:pageopacity="0.0"
     inkscape:pagecheckerboard="0"
     inkscape:deskcolor="#d1d1d1"
     inkscape:zoom="49.563588"
     inkscape:cx="7.9998244"
     inkscape:cy="8.0200005"
     inkscape:window-width="1920"
     inkscape:window-height="1010"
     inkscape:window-x="0"
     inkscape:window-y="0"
     inkscape:window-maximized="1"
     inkscape:current-layer="svg1" />
  <path
     id="path1"
     style="fill:currentColor"
     class="ColorScheme-Text"
     d="M 6.2167969 0.064453125 C 6.1640469 0.064953125 6.1115469 0.0668125 6.0605469 0.0703125 L 6.0605469 0.072265625 A 1.546 1.546 0 0 0 5.2167969 0.38476562 C 4.5577969 0.89476563 4.3672969 1.9065625 4.9042969 2.6015625 C 5.1442969 2.9115625 5.4630469 3.1970625 5.8730469 3.5390625 C 6.0770469 3.7090625 6.2792969 3.8707656 6.5292969 4.0097656 L 6.5917969 4.0390625 L 1.4980469 4.0390625 A 0.5 0.5 0 0 0 0.99804688 4.5390625 L 0.99804688 7.5390625 C 0.99804688 7.8170625 1.2210469 8.0390625 1.4980469 8.0390625 L 1.9980469 8.0390625 L 1.9980469 15.539062 C 1.9980469 15.817063 2.2210469 16.039063 2.4980469 16.039062 L 13.498047 16.039062 C 13.775047 16.039062 13.998047 15.817063 13.998047 15.539062 L 13.998047 8.0390625 L 14.498047 8.0390625 C 14.775047 8.0390625 14.998047 7.8170625 14.998047 7.5390625 L 14.998047 4.5390625 A 0.5 0.5 0 0 0 14.498047 4.0390625 L 9.6542969 4.0390625 C 9.7872969 3.9570625 9.9162969 3.8800625 10.029297 3.7890625 C 10.336297 3.5460625 10.543297 3.4085625 10.779297 3.1015625 C 11.288297 2.4445625 11.098047 1.5352656 10.498047 1.0722656 C 10.218047 0.85626563 9.8347969 0.78026562 9.4667969 0.82226562 C 9.0987969 0.86226563 8.7250469 1.0282656 8.4980469 1.3222656 C 8.3110469 1.5622656 8.2230469 1.7717656 8.1230469 2.0097656 C 8.1050469 1.9657656 8.0775469 1.9267656 8.0605469 1.8847656 A 8.575 8.575 0 0 0 7.7480469 1.1953125 C 7.6400469 0.9893125 7.5835469 0.8550625 7.4355469 0.6640625 A 1.565 1.565 0 0 0 6.3730469 0.0703125 C 6.3230469 0.0648125 6.2695469 0.063953125 6.2167969 0.064453125 z M 6.1445312 1.0097656 C 6.1575469 1.0081719 6.1712969 1.0090156 6.1855469 1.0097656 A 0.65 0.65 0 0 1 6.6542969 1.2597656 C 6.8592969 1.5237656 7.6057969 3.0225625 7.3417969 3.2265625 C 7.0777969 3.4315625 5.8895469 2.2737656 5.6855469 2.0097656 A 0.602 0.602 0 0 1 5.8105469 1.1640625 A 0.689 0.689 0 0 1 6.0292969 1.0390625 C 6.0712969 1.0278125 6.1054844 1.0145469 6.1445312 1.0097656 z M 9.6308594 1.7871094 C 9.7177578 1.7869316 9.7934219 1.8226406 9.8730469 1.8847656 C 10.056047 2.0247656 10.107797 2.2935625 9.9667969 2.4765625 C 9.8257969 2.6595625 8.9925469 3.4300625 8.8105469 3.2890625 C 8.6275469 3.1470625 9.1685469 2.1283125 9.3105469 1.9453125 A 0.425 0.425 0 0 1 9.5917969 1.7890625 C 9.6046719 1.7875625 9.6184453 1.7871348 9.6308594 1.7871094 z M 1.9980469 5.0390625 L 6.9980469 5.0390625 L 6.9980469 7.0390625 L 1.9980469 7.0390625 L 1.9980469 5.0390625 z M 8.9980469 5.0390625 L 13.998047 5.0390625 L 13.998047 7.0390625 L 8.9980469 7.0390625 L 8.9980469 5.0390625 z M 2.9980469 8.0390625 L 6.9980469 8.0390625 L 6.9980469 15.039062 L 2.9980469 15.039062 L 2.9980469 8.0390625 z M 8.9980469 8.0390625 L 12.998047 8.0390625 L 12.998047 15.039062 L 8.9980469 15.039062 L 8.9980469 8.0390625 z " />
</svg>

<svg height="16.04" width="16" xmlns="http://www.w3.org/2000/svg"><path d="M6.06.072a1.546 1.546 0 0 0-.843.312c-.659.51-.85 1.523-.313 2.218.24.31.56.596.97.938.204.17.405.33.655.469l.063.03H1.498a.5.5 0 0 0-.5.5v3c0 .278.223.5.5.5h.5v7.5c0 .278.223.5.5.5h11c.277 0 .5-.222.5-.5v-7.5h.5c.277 0 .5-.222.5-.5v-3a.5.5 0 0 0-.5-.5H9.654c.133-.082.262-.159.375-.25.307-.243.514-.38.75-.687.509-.657.32-1.567-.28-2.03-.28-.216-.664-.292-1.032-.25-.368.04-.742.206-.969.5-.187.24-.275.449-.375.687-.018-.044-.045-.083-.062-.125a8.575 8.575 0 0 0-.313-.688C7.64.99 7.584.856 7.436.665A1.565 1.565 0 0 0 6.373.071c-.1-.011-.21-.007-.312 0zm.126.937a.65.65 0 0 1 .468.25c.205.264.952 1.764.688 1.968-.264.205-1.452-.954-1.656-1.218a.602.602 0 0 1 .125-.844.689.689 0 0 1 .218-.125c.056-.015.1-.034.157-.031zm3.406.78c.103-.012.19.024.281.095.183.14.235.41.094.593s-.974.954-1.156.813c-.183-.142.358-1.161.5-1.344a.425.425 0 0 1 .28-.156zm-7.594 3.25h5v2h-5zm7 0h5v2h-5zm-6 3h4v7h-4zm6 0h4v7h-4z" fill="#363636" overflow="visible" style="marker:none" color="#000"/></svg>
